packages/icons/src/triangle-exclamation-fill.svg

<svg width="24" height="24" viewBox="0 0 24 24" fill="none" xmlns="http://www.w3.org/2000/svg">
<path fill-rule="evenodd" clip-rule="evenodd" d="M14.2603 5.09648L14.3686 5.24257L21.4919 15.5147C21.8229 15.9919 22 16.5572 22 17.1362C22 18.6613 20.7964 19.908 19.2788 19.9951L19.1089 20H4.89137C4.3088 20 3.73981 19.8257 3.25898 19.4998C1.99183 18.6411 1.63108 16.9604 2.40668 15.6718L2.50522 15.5192L9.59938 5.2471C9.76043 5.01391 9.9552 4.80593 10.1771 4.62968L10.3486 4.50355L10.5025 4.40565C11.7498 3.66573 13.3641 3.96249 14.2603 5.09648ZM12.9662 14.8628H10.9724V16.8378H12.9662V14.8628ZM12.9662 8.44386H10.9724V12.8877H12.9662V8.44386Z" fill="black"/>
</svg>

<svg xmlns="http://www.w3.org/2000/svg" width="24" height="24" fill="none" viewBox="0 0 24 24">
  <path fill="#000" fill-rule="evenodd" d="m14.26 5.096.109.147 7.123 10.272A2.85 2.85 0 0 1 22 17.136c0 1.525-1.204 2.772-2.721 2.86l-.17.004H4.89a2.91 2.91 0 0 1-1.632-.5 2.847 2.847 0 0 1-.852-3.828l.098-.153L9.6 5.247a2.87 2.87 0 0 1 .578-.617l.172-.126.153-.098a2.91 2.91 0 0 1 3.758.69Zm-1.294 9.767h-1.994v1.975h1.994v-1.975Zm0-6.42h-1.994v4.445h1.994V8.444Z" clip-rule="evenodd"/>
</svg>
